MFG-dev/images/fig-slope-grid2.svg

<?xml version="1.0" encoding="UTF-8"?>
<svg xmlns="http://www.w3.org/2000/svg" xmlns:xlink="http://www.w3.org/1999/xlink" width="97.1717pt" height="97.2283pt" viewBox="0 0 97.1717 97.2283" version="1.1">
<defs>
<clipPath id="clip1">
  <path d="M 0 0 L 97 0 L 97 97.226562 L 0 97.226562 Z M 0 0 "/>
</clipPath>
<linearGradient id="linear0" gradientUnits="userSpaceOnUse" x1="179.98317" y1="128" x2="248.699455" y2="128" gradientTransform="matrix(1.4141,0,0,0.5594,-254.5142,-22.14)">
<stop offset="0" style="stop-color:rgb(84.80072%,93.319702%,96.620178%);stop-opacity:1;"/>
<stop offset="0.125" style="stop-color:rgb(85.090637%,93.515015%,96.774292%);stop-opacity:1;"/>
<stop offset="0.25" style="stop-color:rgb(85.671997%,93.904114%,97.085571%);stop-opacity:1;"/>
<stop offset="0.375" style="stop-color:rgb(86.254883%,94.294739%,97.396851%);stop-opacity:1;"/>
<stop offset="0.5" style="stop-color:rgb(86.84082%,94.685364%,97.706604%);stop-opacity:1;"/>
<stop offset="0.625" style="stop-color:rgb(87.425232%,95.075989%,98.017883%);stop-opacity:1;"/>
<stop offset="0.75" style="stop-color:rgb(88.014221%,95.46814%,98.329163%);stop-opacity:1;"/>
<stop offset="0.875" style="stop-color:rgb(88.604736%,95.860291%,98.640442%);stop-opacity:1;"/>
<stop offset="1" style="stop-color:rgb(89.198303%,96.253967%,98.953247%);stop-opacity:1;"/>
</linearGradient>
<clipPath id="clip2">
  <path d="M 1.484375 2.019531 L 94.484375 2.019531 L 94.484375 96 L 1.484375 96 Z M 1.484375 2.019531 "/>
</clipPath>
<clipPath id="clip3">
  <path d="M 1.484375 39 L 94.484375 39 L 94.484375 77 L 1.484375 77 Z M 1.484375 39 "/>
</clipPath>
<clipPath id="clip4">
  <path d="M 0 0 L 97.171875 0 L 97.171875 97.226562 L 0 97.226562 Z M 0 0 "/>
</clipPath>
</defs>
<g id="surface1">
<g clip-path="url(#clip1)" clip-rule="nonzero">
<path style=" stroke:none;fill-rule:nonzero;fill:url(#linear0);" d="M 0 0 L 0 97.226562 L 97.171875 97.226562 L 97.171875 0 Z M 0 0 "/>
</g>
<g clip-path="url(#clip2)" clip-rule="nonzero">
<path style="fill:none;stroke-width:0.35;stroke-linecap:butt;stroke-linejoin:miter;stroke:rgb(74.119568%,73.648071%,73.765564%);stroke-opacity:1;stroke-miterlimit:4;" d="M 514.92045 397.921094 L 606.912637 397.921094 M 514.92045 388.721875 L 606.912637 388.721875 M 514.92045 379.522656 L 606.912637 379.522656 M 514.92045 370.327344 L 606.912637 370.327344 M 514.92045 361.128125 L 606.912637 361.128125 M 514.92045 351.928906 L 606.912637 351.928906 M 514.92045 342.729688 L 606.912637 342.729688 M 514.92045 333.530469 L 606.912637 333.530469 M 514.92045 324.335156 L 606.912637 324.335156 M 514.92045 315.135938 L 606.912637 315.135938 M 514.92045 305.936719 L 606.912637 305.936719 M 514.92045 305.936719 L 514.92045 397.921094 M 524.119669 305.936719 L 524.119669 397.921094 M 533.318887 305.936719 L 533.318887 397.921094 M 542.518106 305.936719 L 542.518106 397.921094 M 551.717325 305.936719 L 551.717325 397.921094 M 560.916544 305.936719 L 560.916544 397.921094 M 570.115762 305.936719 L 570.115762 397.921094 M 579.314981 305.936719 L 579.314981 397.921094 M 588.5142 305.936719 L 588.5142 397.921094 M 597.713419 305.936719 L 597.713419 397.921094 M 606.912637 305.936719 L 606.912637 397.921094 " transform="matrix(1,0,0,-1,-513.0142,400.8)"/>
</g>
<g clip-path="url(#clip3)" clip-rule="nonzero">
<path style="fill:none;stroke-width:1.2;stroke-linecap:butt;stroke-linejoin:miter;stroke:rgb(93.609619%,18.434143%,17.378235%);stroke-opacity:1;stroke-miterlimit:4;" d="M 514.92045 331.190625 L 606.912637 354.225781 " transform="matrix(1,0,0,-1,-513.0142,400.8)"/>
</g>
<path style=" stroke:none;fill-rule:nonzero;fill:rgb(93.609619%,18.434143%,17.378235%);fill-opacity:1;" d="M 11.257812 69.269531 C 12.363281 69.269531 13.257812 68.371094 13.257812 67.269531 C 13.257812 66.164062 12.363281 65.269531 11.257812 65.269531 C 10.152344 65.269531 9.257812 66.164062 9.257812 67.269531 C 9.257812 68.371094 10.152344 69.269531 11.257812 69.269531 "/>
<path style=" stroke:none;fill-rule:nonzero;fill:rgb(93.609619%,18.434143%,17.378235%);fill-opacity:1;" d="M 84.726562 50.871094 C 85.828125 50.871094 86.726562 49.976562 86.726562 48.871094 C 86.726562 47.765625 85.828125 46.871094 84.726562 46.871094 C 83.621094 46.871094 82.726562 47.765625 82.726562 48.871094 C 82.726562 49.976562 83.621094 50.871094 84.726562 50.871094 "/>
<g clip-path="url(#clip4)" clip-rule="nonzero">
<path style="fill:none;stroke-width:0.5;stroke-linecap:butt;stroke-linejoin:miter;stroke:rgb(100%,100%,100%);stroke-opacity:1;stroke-miterlimit:10;" d="M 41.998575 803.999219 L 41.998575 779.999219 M -0.001425 761.999219 L 23.998575 761.999219 M 653.998575 803.999219 L 653.998575 779.999219 M 695.998575 761.999219 L 671.998575 761.999219 M 41.998575 -0.00078125 L 41.998575 23.999219 M -0.001425 41.999219 L 23.998575 41.999219 M 653.998575 -0.00078125 L 653.998575 23.999219 M 695.998575 41.999219 L 671.998575 41.999219 " transform="matrix(1,0,0,-1,-513.0142,400.8)"/>
<path style="fill:none;stroke-width:0.25;stroke-linecap:butt;stroke-linejoin:miter;stroke:rgb(0%,0%,0%);stroke-opacity:1;stroke-miterlimit:10;" d="M 41.998575 803.999219 L 41.998575 779.999219 M -0.001425 761.999219 L 23.998575 761.999219 M 653.998575 803.999219 L 653.998575 779.999219 M 695.998575 761.999219 L 671.998575 761.999219 M 41.998575 -0.00078125 L 41.998575 23.999219 M -0.001425 41.999219 L 23.998575 41.999219 M 653.998575 -0.00078125 L 653.998575 23.999219 M 695.998575 41.999219 L 671.998575 41.999219 " transform="matrix(1,0,0,-1,-513.0142,400.8)"/>
<path style="fill:none;stroke-width:0.5;stroke-linecap:butt;stroke-linejoin:miter;stroke:rgb(100%,100%,100%);stroke-opacity:1;stroke-miterlimit:10;" d="M 323.998575 791.999219 L 371.998575 791.999219 M 323.998575 11.999219 L 371.998575 11.999219 M 11.998575 425.999219 L 11.998575 377.999219 M 683.998575 425.999219 L 683.998575 377.999219 M 347.998575 803.999219 L 347.998575 779.999219 M 347.998575 23.999219 L 347.998575 -0.00078125 M -0.001425 401.999219 L 23.998575 401.999219 M 671.998575 401.999219 L 695.998575 401.999219 M 347.998575 791.999219 L 353.998575 791.999219 C 353.998575 788.686719 351.311075 785.999219 347.998575 785.999219 C 344.686075 785.999219 341.998575 788.686719 341.998575 791.999219 C 341.998575 795.311719 344.686075 797.999219 347.998575 797.999219 C 351.311075 797.999219 353.998575 795.311719 353.998575 791.999219 M 347.998575 11.999219 L 353.998575 11.999219 C 353.998575 8.686719 351.311075 5.999219 347.998575 5.999219 C 344.686075 5.999219 341.998575 8.686719 341.998575 11.999219 C 341.998575 15.311719 344.686075 17.999219 347.998575 17.999219 C 351.311075 17.999219 353.998575 15.311719 353.998575 11.999219 M 11.998575 401.999219 L 17.998575 401.999219 C 17.998575 398.686719 15.311075 395.999219 11.998575 395.999219 C 8.686075 395.999219 5.998575 398.686719 5.998575 401.999219 C 5.998575 405.311719 8.686075 407.999219 11.998575 407.999219 C 15.311075 407.999219 17.998575 405.311719 17.998575 401.999219 M 683.998575 401.999219 L 689.998575 401.999219 C 689.998575 398.686719 687.311075 395.999219 683.998575 395.999219 C 680.686075 395.999219 677.998575 398.686719 677.998575 401.999219 C 677.998575 405.311719 680.686075 407.999219 683.998575 407.999219 C 687.311075 407.999219 689.998575 405.311719 689.998575 401.999219 " transform="matrix(1,0,0,-1,-513.0142,400.8)"/>
<path style="fill:none;stroke-width:0.25;stroke-linecap:butt;stroke-linejoin:miter;stroke:rgb(0%,0%,0%);stroke-opacity:1;stroke-miterlimit:10;" d="M 323.998575 791.999219 L 371.998575 791.999219 M 323.998575 11.999219 L 371.998575 11.999219 M 11.998575 425.999219 L 11.998575 377.999219 M 683.998575 425.999219 L 683.998575 377.999219 M 347.998575 803.999219 L 347.998575 779.999219 M 347.998575 23.999219 L 347.998575 -0.00078125 M -0.001425 401.999219 L 23.998575 401.999219 M 671.998575 401.999219 L 695.998575 401.999219 M 347.998575 791.999219 L 353.998575 791.999219 C 353.998575 788.686719 351.311075 785.999219 347.998575 785.999219 C 344.686075 785.999219 341.998575 788.686719 341.998575 791.999219 C 341.998575 795.311719 344.686075 797.999219 347.998575 797.999219 C 351.311075 797.999219 353.998575 795.311719 353.998575 791.999219 M 347.998575 11.999219 L 353.998575 11.999219 C 353.998575 8.686719 351.311075 5.999219 347.998575 5.999219 C 344.686075 5.999219 341.998575 8.686719 341.998575 11.999219 C 341.998575 15.311719 344.686075 17.999219 347.998575 17.999219 C 351.311075 17.999219 353.998575 15.311719 353.998575 11.999219 M 11.998575 401.999219 L 17.998575 401.999219 C 17.998575 398.686719 15.311075 395.999219 11.998575 395.999219 C 8.686075 395.999219 5.998575 398.686719 5.998575 401.999219 C 5.998575 405.311719 8.686075 407.999219 11.998575 407.999219 C 15.311075 407.999219 17.998575 405.311719 17.998575 401.999219 M 683.998575 401.999219 L 689.998575 401.999219 C 689.998575 398.686719 687.311075 395.999219 683.998575 395.999219 C 680.686075 395.999219 677.998575 398.686719 677.998575 401.999219 C 677.998575 405.311719 680.686075 407.999219 683.998575 407.999219 C 687.311075 407.999219 689.998575 405.311719 689.998575 401.999219 " transform="matrix(1,0,0,-1,-513.0142,400.8)"/>
</g>
</g>
</svg>

<?xml version="1.0" encoding="UTF-8" standalone="no"?>
<svg
   xmlns:dc="http://purl.org/dc/elements/1.1/"
   xmlns:cc="http://creativecommons.org/ns#"
   xmlns:rdf="http://www.w3.org/1999/02/22-rdf-syntax-ns#"
   xmlns:svg="http://www.w3.org/2000/svg"
   xmlns="http://www.w3.org/2000/svg"
   xmlns:sodipodi="http://sodipodi.sourceforge.net/DTD/sodipodi-0.dtd"
   xmlns:inkscape="http://www.inkscape.org/namespaces/inkscape"
   width="97.1717pt"
   height="97.2283pt"
   viewBox="0 0 97.1717 97.2283"
   version="1.1"
   id="svg2"
   inkscape:version="0.91 r13725"
   sodipodi:docname="fig-slope-grid2.svg">
  <metadata
     id="metadata66">
    <rdf:RDF>
      <cc:Work
         rdf:about="">
        <dc:format>image/svg+xml</dc:format>
        <dc:type
           rdf:resource="http://purl.org/dc/dcmitype/StillImage" />
      </cc:Work>
    </rdf:RDF>
  </metadata>
  <sodipodi:namedview
     pagecolor="#ffffff"
     bordercolor="#666666"
     borderopacity="1"
     objecttolerance="10"
     gridtolerance="10"
     guidetolerance="10"
     inkscape:pageopacity="0"
     inkscape:pageshadow="2"
     inkscape:window-width="640"
     inkscape:window-height="480"
     id="namedview64"
     showgrid="false"
     inkscape:zoom="1.9418214"
     inkscape:cx="60.732312"
     inkscape:cy="60.767689"
     inkscape:window-x="0"
     inkscape:window-y="0"
     inkscape:window-maximized="0"
     inkscape:current-layer="svg2" />
  <defs
     id="defs4">
    <clipPath
       id="clip1">
      <path
         d="M 0 0 L 97 0 L 97 97.226562 L 0 97.226562 Z M 0 0 "
         id="path7" />
    </clipPath>
    <linearGradient
       id="linear0"
       gradientUnits="userSpaceOnUse"
       x1="179.98317"
       y1="128"
       x2="248.699455"
       y2="128"
       gradientTransform="matrix(1.4141,0,0,0.5594,-254.5142,-22.14)">
      <stop
         offset="0"
         style="stop-color:rgb(84.80072%,93.319702%,96.620178%);stop-opacity:1;"
         id="stop10" />
      <stop
         offset="0.125"
         style="stop-color:rgb(85.090637%,93.515015%,96.774292%);stop-opacity:1;"
         id="stop12" />
      <stop
         offset="0.25"
         style="stop-color:rgb(85.671997%,93.904114%,97.085571%);stop-opacity:1;"
         id="stop14" />
      <stop
         offset="0.375"
         style="stop-color:rgb(86.254883%,94.294739%,97.396851%);stop-opacity:1;"
         id="stop16" />
      <stop
         offset="0.5"
         style="stop-color:rgb(86.84082%,94.685364%,97.706604%);stop-opacity:1;"
         id="stop18" />
      <stop
         offset="0.625"
         style="stop-color:rgb(87.425232%,95.075989%,98.017883%);stop-opacity:1;"
         id="stop20" />
      <stop
         offset="0.75"
         style="stop-color:rgb(88.014221%,95.46814%,98.329163%);stop-opacity:1;"
         id="stop22" />
      <stop
         offset="0.875"
         style="stop-color:rgb(88.604736%,95.860291%,98.640442%);stop-opacity:1;"
         id="stop24" />
      <stop
         offset="1"
         style="stop-color:rgb(89.198303%,96.253967%,98.953247%);stop-opacity:1;"
         id="stop26" />
    </linearGradient>
    <clipPath
       id="clip2">
      <path
         d="M 1.484375 2.019531 L 94.484375 2.019531 L 94.484375 96 L 1.484375 96 Z M 1.484375 2.019531 "
         id="path29" />
    </clipPath>
    <clipPath
       id="clip3">
      <path
         d="M 1.484375 39 L 94.484375 39 L 94.484375 77 L 1.484375 77 Z M 1.484375 39 "
         id="path32" />
    </clipPath>
    <clipPath
       id="clip4">
      <path
         d="M 0 0 L 97.171875 0 L 97.171875 97.226562 L 0 97.226562 Z M 0 0 "
         id="path35" />
    </clipPath>
  </defs>
  <g
     style="clip-rule:nonzero"
     id="g42"
     clip-path="url(#clip2)">
    <path
       inkscape:connector-curvature="0"
       id="path44"
       transform="matrix(1,0,0,-1,-513.0142,400.8)"
       d="m 514.92045,397.92109 91.99219,0 m -91.99219,-9.19922 91.99219,0 m -91.99219,-9.19921 91.99219,0 m -91.99219,-9.19532 91.99219,0 m -91.99219,-9.19922 91.99219,0 m -91.99219,-9.19921 91.99219,0 m -91.99219,-9.19922 91.99219,0 m -91.99219,-9.19922 91.99219,0 m -91.99219,-9.19531 91.99219,0 m -91.99219,-9.19922 91.99219,0 m -91.99219,-9.19922 91.99219,0 m -91.99219,0 0,91.98437 m 9.19922,-91.98437 0,91.98437 m 9.19922,-91.98437 0,91.98437 m 9.19922,-91.98437 0,91.98437 m 9.19921,-91.98437 0,91.98437 m 9.19922,-91.98437 0,91.98437 m 9.19922,-91.98437 0,91.98437 m 9.19922,-91.98437 0,91.98437 m 9.19922,-91.98437 0,91.98437 m 9.19922,-91.98437 0,91.98437 m 9.19922,-91.98437 0,91.98437"
       style="fill:none;stroke:#bdbaba;stroke-width:0.34999999;stroke-linecap:butt;stroke-linejoin:miter;stroke-miterlimit:4;stroke-opacity:1" />
  </g>
  <g
     style="clip-rule:nonzero"
     id="g46"
     clip-path="url(#clip3)">
    <path
       inkscape:connector-curvature="0"
       id="path48"
       transform="matrix(1,0,0,-1,-513.0142,400.8)"
       d="m 514.92045,331.19062 91.99219,23.03516"
       style="fill:none;stroke:#ee2e2b;stroke-width:1.20000005;stroke-linecap:butt;stroke-linejoin:miter;stroke-miterlimit:4;stroke-opacity:1" />
  </g>
  <path
     inkscape:connector-curvature="0"
     id="path50"
     d="m 11.257812,69.269531 c 1.105469,0 2,-0.898437 2,-2 0,-1.105469 -0.894531,-2 -2,-2 -1.105468,0 -2,0.894531 -2,2 0,1.101563 0.894532,2 2,2"
     style="fill:#ee2e2b;fill-opacity:1;fill-rule:nonzero;stroke:none" />
  <path
     inkscape:connector-curvature="0"
     id="path52"
     d="m 84.726562,50.871094 c 1.101563,0 2,-0.894532 2,-2 0,-1.105469 -0.898437,-2 -2,-2 -1.105468,0 -2,0.894531 -2,2 0,1.105468 0.894532,2 2,2"
     style="fill:#ee2e2b;fill-opacity:1;fill-rule:nonzero;stroke:none" />
  <g
     style="clip-rule:nonzero"
     id="g54"
     clip-path="url(#clip4)">
    <path
       inkscape:connector-curvature="0"
       id="path56"
       transform="matrix(1,0,0,-1,-513.0142,400.8)"
       d="m 41.998575,803.99922 0,-24 m -42,-18 24,0 m 629.999995,42 0,-24 m 42,-18 -24,0 M 41.998575,-7.8125e-4 l 0,24.00000025 m -42,18 24,0 M 653.99857,-7.8125e-4 l 0,24.00000025 m 42,18 -24,0"
       style="fill:none;stroke:#ffffff;stroke-width:0.5;stroke-linecap:butt;stroke-linejoin:miter;stroke-miterlimit:10;stroke-opacity:1" />
    <path
       inkscape:connector-curvature="0"
       id="path58"
       transform="matrix(1,0,0,-1,-513.0142,400.8)"
       d="m 41.998575,803.99922 0,-24 m -42,-18 24,0 m 629.999995,42 0,-24 m 42,-18 -24,0 M 41.998575,-7.8125e-4 l 0,24.00000025 m -42,18 24,0 M 653.99857,-7.8125e-4 l 0,24.00000025 m 42,18 -24,0"
       style="fill:none;stroke:#000000;stroke-width:0.25;stroke-linecap:butt;stroke-linejoin:miter;stroke-miterlimit:10;stroke-opacity:1" />
    <path
       inkscape:connector-curvature="0"
       id="path60"
       transform="matrix(1,0,0,-1,-513.0142,400.8)"
       d="m 323.99858,791.99922 48,0 m -48,-780.000001 48,0 M 11.998575,425.99922 l 0,-48 m 671.999995,48 0,-48 m -335.99999,426 0,-24 m 0,-756.000001 0,-24.00000025 M -0.001425,401.99922 l 24,0 m 647.999995,0 24,0 m -347.99999,390 6,0 c 0,-3.3125 -2.6875,-6 -6,-6 -3.3125,0 -6,2.6875 -6,6 0,3.3125 2.6875,6 6,6 3.3125,0 6,-2.6875 6,-6 m -6,-780.000001 6,0 c 0,-3.3125 -2.6875,-6 -6,-6 -3.3125,0 -6,2.6875 -6,6 0,3.3125 2.6875,6 6,6 3.3125,0 6,-2.6875 6,-6 M 11.998575,401.99922 l 6,0 c 0,-3.3125 -2.6875,-6 -6,-6 -3.3125,0 -6,2.6875 -6,6 0,3.3125 2.6875,6 6,6 3.3125,0 6,-2.6875 6,-6 m 665.999995,0 6,0 c 0,-3.3125 -2.6875,-6 -6,-6 -3.3125,0 -6,2.6875 -6,6 0,3.3125 2.6875,6 6,6 3.3125,0 6,-2.6875 6,-6"
       style="fill:none;stroke:#ffffff;stroke-width:0.5;stroke-linecap:butt;stroke-linejoin:miter;stroke-miterlimit:10;stroke-opacity:1" />
    <path
       inkscape:connector-curvature="0"
       id="path62"
       transform="matrix(1,0,0,-1,-513.0142,400.8)"
       d="m 323.99858,791.99922 48,0 m -48,-780.000001 48,0 M 11.998575,425.99922 l 0,-48 m 671.999995,48 0,-48 m -335.99999,426 0,-24 m 0,-756.000001 0,-24.00000025 M -0.001425,401.99922 l 24,0 m 647.999995,0 24,0 m -347.99999,390 6,0 c 0,-3.3125 -2.6875,-6 -6,-6 -3.3125,0 -6,2.6875 -6,6 0,3.3125 2.6875,6 6,6 3.3125,0 6,-2.6875 6,-6 m -6,-780.000001 6,0 c 0,-3.3125 -2.6875,-6 -6,-6 -3.3125,0 -6,2.6875 -6,6 0,3.3125 2.6875,6 6,6 3.3125,0 6,-2.6875 6,-6 M 11.998575,401.99922 l 6,0 c 0,-3.3125 -2.6875,-6 -6,-6 -3.3125,0 -6,2.6875 -6,6 0,3.3125 2.6875,6 6,6 3.3125,0 6,-2.6875 6,-6 m 665.999995,0 6,0 c 0,-3.3125 -2.6875,-6 -6,-6 -3.3125,0 -6,2.6875 -6,6 0,3.3125 2.6875,6 6,6 3.3125,0 6,-2.6875 6,-6"
       style="fill:none;stroke:#000000;stroke-width:0.25;stroke-linecap:butt;stroke-linejoin:miter;stroke-miterlimit:10;stroke-opacity:1" />
  </g>
</svg>
